libs/ui/packages/crypto-icons/src/svg/MEETONE.svg

<svg width="24" height="24" viewBox="0 0 24 24" fill="none">
<path d="M6.48285 16.9854L11.6998 20.2674H12.3313L17.4643 16.9854L16.6649 16.3547L11.9946 19.3419L7.15635 16.3547L6.48285 16.9854ZM9.00735 9.37066L11.9526 4.91041L14.9818 9.41266L15.6973 8.78116L12.3313 3.73291C12.3313 3.73291 12.0366 3.35416 11.5738 3.73291L8.12385 8.90791L9.00735 9.37066Z" fill="black" fill-opacity="0.7"/>
<path d="M12.0365 18.3744C12.2045 17.7849 12.4153 17.2382 12.584 16.6494C13.3415 14.2929 14.0983 11.8944 14.8558 9.53866C14.8978 9.41266 14.9398 9.24391 14.9818 9.11866C15.0658 8.86516 15.1918 8.73916 15.4445 8.73916C15.5543 8.73627 15.6614 8.77293 15.7464 8.84246C15.8313 8.912 15.8884 9.00976 15.9073 9.11791C16.1173 9.95941 16.286 10.8429 16.496 11.6844C16.8748 13.2834 17.2115 14.9244 17.5903 16.5227C17.6743 16.9014 17.5483 17.1542 17.2535 17.2382C16.9588 17.3222 16.7488 17.1122 16.6648 16.7334C16.244 14.9244 15.8233 13.1147 15.4445 11.2637C15.4445 11.1797 15.4025 11.1377 15.3605 11.0109C15.3256 11.126 15.2833 11.2388 15.2338 11.3484C14.435 13.7882 13.6775 16.2287 12.878 18.6684C12.752 19.1312 12.5833 19.5519 12.4573 20.0147C12.3733 20.3094 12.2045 20.4354 11.9525 20.4354C11.6998 20.4354 11.5318 20.3094 11.4478 20.0154C10.5223 17.1122 9.59604 14.2089 8.71254 11.3057C8.67054 11.2217 8.67054 11.1797 8.62854 11.0109C8.55349 11.3916 8.46947 11.7704 8.37654 12.1472C8.03904 13.6622 7.70304 15.2184 7.36629 16.7334C7.28229 17.1534 6.94629 17.3642 6.60879 17.1534C6.39879 17.0274 6.35679 16.8174 6.39879 16.5647C6.86154 14.4609 7.36629 12.3572 7.82904 10.2542C7.91304 9.91666 7.99779 9.58066 8.03904 9.24391C8.12379 8.90791 8.29179 8.73916 8.54454 8.73916C8.79729 8.73916 8.96454 8.90791 9.04929 9.24391C10.0168 12.2739 10.9843 15.3452 11.9105 18.3744H12.0365Z" fill="black"/>
</svg>

<svg width="24" height="24" viewBox="0 0 24 24" fill="none"><path fill="#000" fill-opacity=".7" d="m6.483 16.985 5.217 3.282h.631l5.133-3.282-.8-.63-4.67 2.987-4.838-2.987zm2.524-7.614 2.946-4.46 3.029 4.502.715-.632-3.366-5.048s-.294-.379-.757 0l-3.45 5.175z"/><path fill="#000" d="M12.037 18.374c.167-.59.378-1.136.547-1.725.758-2.356 1.514-4.755 2.272-7.11.042-.126.084-.295.126-.42.084-.254.21-.38.463-.38a.46.46 0 0 1 .462.379c.21.841.379 1.725.589 2.566.379 1.6.716 3.24 1.094 4.839.084.378-.042.631-.337.715-.294.084-.504-.126-.588-.505a209 209 0 0 1-1.22-5.47c0-.083-.043-.125-.085-.252a3 3 0 0 1-.126.337c-.799 2.44-1.556 4.88-2.356 7.32-.126.463-.295.884-.42 1.347-.085.294-.254.42-.505.42-.253 0-.421-.126-.505-.42-.926-2.903-1.852-5.806-2.735-8.71-.042-.083-.042-.125-.084-.294q-.114.571-.252 1.136c-.338 1.515-.674 3.071-1.01 4.586-.085.42-.42.631-.758.42-.21-.126-.252-.336-.21-.588.463-2.104.967-4.208 1.43-6.31.084-.338.169-.674.21-1.011q.127-.505.506-.505.378 0 .504.505a779 779 0 0 1 2.862 9.13z"/></svg>
